dbux-code/resources/dark/string.svg

<?xml version="1.0" encoding="UTF-8"?>
<svg xmlns="http://www.w3.org/2000/svg" xmlns:xlink="http://www.w3.org/1999/xlink" width="16pt" height="16pt" viewBox="0 0 16 16" version="1.1">
<g id="surface1">
<path style=" stroke:none;fill-rule:nonzero;fill:rgb(17.647059%,17.647059%,18.823529%);fill-opacity:1;" d="M 1 2 L 16 2 L 16 14 L 1 14 Z M 1 2 "/>
<path style=" stroke:none;fill-rule:nonzero;fill:rgb(16.862745%,15.686275%,18.039216%);fill-opacity:1;" d="M 12.078125 7.976562 C 11.960938 7.773438 11.742188 7.652344 11.507812 7.65625 C 11.390625 7.65625 11.277344 7.683594 11.175781 7.738281 C 11.074219 7.796875 10.988281 7.875 10.921875 7.972656 C 10.84375 8.082031 10.785156 8.203125 10.753906 8.332031 C 10.710938 8.480469 10.6875 8.640625 10.691406 8.796875 L 10.691406 9.300781 C 10.691406 9.4375 10.710938 9.566406 10.746094 9.683594 C 10.78125 9.792969 10.832031 9.898438 10.902344 9.988281 C 10.964844 10.074219 11.046875 10.144531 11.136719 10.195312 C 11.34375 10.304688 11.589844 10.296875 11.789062 10.179688 C 11.898438 10.117188 11.988281 10.023438 12.054688 9.914062 C 12.128906 9.796875 12.183594 9.648438 12.222656 9.46875 C 12.261719 9.289062 12.28125 9.082031 12.28125 8.847656 C 12.285156 8.683594 12.265625 8.515625 12.230469 8.355469 C 12.199219 8.222656 12.148438 8.09375 12.078125 7.976562 Z M 7.101562 9.222656 C 7.027344 9.253906 6.960938 9.300781 6.90625 9.355469 C 6.859375 9.410156 6.828125 9.46875 6.808594 9.535156 C 6.789062 9.605469 6.78125 9.683594 6.78125 9.769531 C 6.78125 9.847656 6.796875 9.917969 6.824219 9.988281 C 6.875 10.125 6.988281 10.226562 7.125 10.273438 C 7.316406 10.339844 7.523438 10.328125 7.703125 10.242188 C 7.800781 10.195312 7.890625 10.125 7.960938 10.042969 C 8.03125 9.957031 8.089844 9.855469 8.125 9.746094 C 8.164062 9.636719 8.183594 9.515625 8.183594 9.382812 L 8.183594 9.035156 L 7.421875 9.144531 C 7.292969 9.164062 7.183594 9.191406 7.101562 9.222656 Z M 7.101562 9.222656 "/>
<path style=" stroke:none;fill-rule:nonzero;fill:rgb(16.862745%,15.686275%,18.039216%);fill-opacity:1;" d="M 3 4 L 3 12 L 14 12 L 14 4 Z M 8.960938 10.90625 L 8.175781 10.90625 L 8.175781 10.378906 L 8.164062 10.378906 C 8.042969 10.582031 7.894531 10.734375 7.722656 10.839844 C 7.550781 10.949219 7.351562 11 7.121094 11 C 6.9375 11 6.78125 10.972656 6.640625 10.917969 C 6.371094 10.8125 6.164062 10.59375 6.074219 10.320312 C 6.023438 10.171875 6 10.015625 6 9.859375 C 6 9.695312 6.019531 9.539062 6.066406 9.398438 C 6.152344 9.109375 6.355469 8.867188 6.628906 8.734375 C 6.773438 8.660156 6.949219 8.609375 7.152344 8.585938 L 8.183594 8.429688 C 8.183594 8.15625 8.125 7.953125 8.007812 7.828125 C 7.890625 7.707031 7.726562 7.644531 7.515625 7.644531 C 7.300781 7.644531 7.09375 7.683594 6.886719 7.761719 C 6.691406 7.835938 6.507812 7.941406 6.34375 8.074219 L 6.34375 7.308594 C 6.394531 7.273438 6.464844 7.234375 6.558594 7.195312 C 6.773438 7.105469 7 7.039062 7.230469 7 C 7.355469 6.976562 7.476562 6.964844 7.597656 6.964844 C 7.832031 6.964844 8.035156 7 8.203125 7.066406 C 8.375 7.136719 8.519531 7.234375 8.628906 7.363281 C 8.738281 7.488281 8.824219 7.648438 8.878906 7.832031 C 8.933594 8.019531 8.960938 8.230469 8.960938 8.46875 Z M 12.90625 9.707031 C 12.855469 9.945312 12.761719 10.171875 12.636719 10.378906 C 12.523438 10.558594 12.371094 10.710938 12.191406 10.820312 C 12.015625 10.929688 11.8125 10.980469 11.582031 10.980469 C 11.484375 10.980469 11.386719 10.96875 11.292969 10.9375 C 11.207031 10.910156 11.125 10.871094 11.054688 10.816406 C 10.980469 10.765625 10.917969 10.703125 10.863281 10.632812 C 10.804688 10.558594 10.753906 10.484375 10.710938 10.402344 L 10.699219 10.402344 L 10.699219 10.886719 L 10 10.886719 L 10 5 L 10.695312 5 L 10.695312 7.65625 L 10.710938 7.65625 C 10.765625 7.550781 10.824219 7.453125 10.890625 7.367188 C 10.957031 7.28125 11.03125 7.207031 11.117188 7.144531 C 11.292969 7.011719 11.507812 6.941406 11.730469 6.945312 C 11.953125 6.945312 12.144531 6.996094 12.304688 7.097656 C 12.464844 7.199219 12.59375 7.339844 12.699219 7.515625 C 12.800781 7.691406 12.875 7.894531 12.925781 8.128906 C 12.976562 8.359375 13 8.605469 13 8.863281 C 13 9.167969 12.96875 9.445312 12.90625 9.707031 Z M 12.90625 9.707031 "/>
<path style=" stroke:none;fill-rule:nonzero;fill:rgb(77.254902%,77.254902%,77.254902%);fill-opacity:1;" d="M 2 3 L 2 13 L 15 13 L 15 3 Z M 14 12 L 3 12 L 3 4 L 14 4 Z M 14 12 "/>
<path style=" stroke:none;fill-rule:nonzero;fill:rgb(77.254902%,77.254902%,77.254902%);fill-opacity:1;" d="M 8.628906 7.359375 C 8.515625 7.230469 8.367188 7.128906 8.207031 7.066406 C 8.011719 6.996094 7.804688 6.960938 7.597656 6.964844 C 7.476562 6.964844 7.355469 6.976562 7.230469 6.996094 C 7 7.039062 6.773438 7.105469 6.558594 7.191406 C 6.484375 7.222656 6.410156 7.261719 6.34375 7.308594 L 6.34375 8.074219 C 6.503906 7.941406 6.683594 7.839844 6.886719 7.761719 C 7.09375 7.683594 7.300781 7.644531 7.515625 7.644531 C 7.726562 7.644531 7.890625 7.707031 8.007812 7.832031 C 8.125 7.957031 8.183594 8.15625 8.183594 8.429688 L 7.152344 8.585938 C 6.96875 8.605469 6.792969 8.65625 6.628906 8.738281 C 6.355469 8.871094 6.152344 9.109375 6.066406 9.398438 C 6.019531 9.546875 6 9.703125 6 9.859375 C 6 10.027344 6.023438 10.179688 6.074219 10.320312 C 6.164062 10.59375 6.371094 10.816406 6.640625 10.914062 C 6.78125 10.972656 6.941406 11 7.121094 11 C 7.351562 11 7.550781 10.945312 7.726562 10.839844 C 7.90625 10.722656 8.058594 10.566406 8.164062 10.378906 L 8.179688 10.378906 L 8.179688 10.90625 L 8.964844 10.90625 L 8.964844 8.46875 C 8.964844 8.230469 8.9375 8.019531 8.878906 7.832031 C 8.832031 7.660156 8.746094 7.5 8.628906 7.359375 Z M 8.183594 9.382812 C 8.183594 9.511719 8.160156 9.632812 8.125 9.746094 C 8.089844 9.855469 8.03125 9.953125 7.960938 10.042969 C 7.8125 10.21875 7.59375 10.316406 7.367188 10.3125 C 7.285156 10.3125 7.203125 10.300781 7.125 10.273438 C 7.054688 10.246094 6.992188 10.210938 6.9375 10.160156 C 6.886719 10.109375 6.847656 10.050781 6.820312 9.988281 C 6.792969 9.917969 6.78125 9.84375 6.78125 9.769531 C 6.78125 9.683594 6.792969 9.605469 6.808594 9.535156 C 6.824219 9.46875 6.859375 9.410156 6.90625 9.355469 C 6.960938 9.300781 7.027344 9.253906 7.101562 9.222656 C 7.183594 9.191406 7.289062 9.164062 7.421875 9.144531 L 8.183594 9.035156 Z M 12.695312 7.515625 C 12.601562 7.347656 12.464844 7.203125 12.304688 7.101562 C 12.132812 6.992188 11.933594 6.941406 11.730469 6.945312 C 11.511719 6.945312 11.292969 7.015625 11.117188 7.144531 C 11.03125 7.207031 10.957031 7.285156 10.890625 7.367188 C 10.824219 7.460938 10.761719 7.554688 10.710938 7.65625 L 10.695312 7.65625 L 10.695312 5 L 10 5 L 10 10.886719 L 10.695312 10.886719 L 10.695312 10.402344 L 10.710938 10.402344 C 10.753906 10.484375 10.804688 10.5625 10.859375 10.632812 C 10.917969 10.703125 10.980469 10.765625 11.050781 10.816406 C 11.125 10.871094 11.203125 10.910156 11.289062 10.9375 C 11.382812 10.96875 11.480469 10.984375 11.582031 10.980469 C 11.8125 10.980469 12.015625 10.929688 12.191406 10.820312 C 12.371094 10.710938 12.523438 10.558594 12.632812 10.378906 C 12.753906 10.191406 12.84375 9.96875 12.90625 9.707031 C 12.972656 9.429688 13.003906 9.144531 13 8.863281 C 13 8.617188 12.976562 8.371094 12.925781 8.128906 C 12.882812 7.914062 12.804688 7.707031 12.695312 7.515625 Z M 12.222656 9.46875 C 12.183594 9.648438 12.128906 9.796875 12.054688 9.914062 C 11.988281 10.023438 11.898438 10.117188 11.789062 10.179688 C 11.589844 10.296875 11.34375 10.304688 11.136719 10.195312 C 11.046875 10.144531 10.964844 10.074219 10.902344 9.988281 C 10.832031 9.898438 10.78125 9.792969 10.746094 9.683594 C 10.710938 9.558594 10.691406 9.429688 10.691406 9.300781 L 10.691406 8.796875 C 10.691406 8.625 10.710938 8.46875 10.753906 8.328125 C 10.789062 8.191406 10.847656 8.070312 10.921875 7.96875 C 10.988281 7.875 11.074219 7.792969 11.175781 7.738281 C 11.277344 7.683594 11.390625 7.65625 11.507812 7.65625 C 11.742188 7.652344 11.960938 7.773438 12.078125 7.976562 C 12.144531 8.082031 12.195312 8.207031 12.226562 8.351562 C 12.261719 8.5 12.28125 8.664062 12.28125 8.847656 C 12.28125 9.082031 12.261719 9.289062 12.222656 9.46875 Z M 12.222656 9.46875 "/>
</g>
</svg>

<svg xmlns="http://www.w3.org/2000/svg" viewBox="0 0 16 16"><style>.st0{opacity:0}.st0,.st1{fill:#2d2d30}.st2{fill:#2b282e}.st3{fill:#c5c5c5}</style><g id="outline"><path class="st0" d="M0 0h16v16H0z"/><path class="st1" d="M1 2h15v12H1z"/></g><g id="icon_x5F_fg"><path class="st2" d="M12.078 7.977a.645.645 0 0 0-.57-.32.678.678 0 0 0-.332.082.783.783 0 0 0-.256.232 1.162 1.162 0 0 0-.168.36 1.646 1.646 0 0 0-.061.465v.506c0 .137.02.264.057.381a.994.994 0 0 0 .154.307.746.746 0 0 0 .236.207.675.675 0 0 0 .651-.016.755.755 0 0 0 .264-.266c.074-.117.129-.266.168-.445.041-.18.061-.387.061-.622a2.12 2.12 0 0 0-.053-.494 1.239 1.239 0 0 0-.151-.377zM7.102 9.224a.541.541 0 0 0-.195.133c-.047.053-.08.111-.098.18s-.027.146-.027.232c0 .078.014.15.041.219a.489.489 0 0 0 .302.285.774.774 0 0 0 .579-.031.801.801 0 0 0 .256-.199.897.897 0 0 0 .165-.295c.038-.113.059-.234.059-.365v-.347l-.762.11c-.13.017-.237.044-.32.078z"/><path class="st2" d="M3 4v8h11V4H3zm5.961 6.907h-.785v-.529h-.013c-.12.203-.267.358-.439.463-.173.107-.374.16-.604.16-.181 0-.339-.027-.479-.084a.966.966 0 0 1-.567-.595A1.398 1.398 0 0 1 6 9.858c0-.164.021-.318.065-.461a1.09 1.09 0 0 1 .562-.661c.146-.074.321-.125.525-.152l1.03-.154c0-.275-.058-.475-.174-.6-.116-.123-.28-.185-.493-.185-.214 0-.423.039-.627.117a1.909 1.909 0 0 0-.544.313v-.768c.051-.035.121-.072.213-.113a3.196 3.196 0 0 1 .672-.195c.127-.021.249-.033.368-.033.234 0 .438.033.608.102.171.068.313.166.424.295.111.127.195.285.249.469.056.186.083.399.083.637v2.438zm3.947-1.201a2.18 2.18 0 0 1-.273.672 1.34 1.34 0 0 1-.443.443c-.176.107-.379.16-.609.16a.93.93 0 0 1-.291-.043.81.81 0 0 1-.238-.121.99.99 0 0 1-.191-.186 1.507 1.507 0 0 1-.152-.228h-.012v.484H10V5h.697v2.656h.012c.055-.105.115-.201.182-.289.066-.086.141-.16.225-.223a.99.99 0 0 1 .615-.198c.221 0 .412.05.572.153.16.102.291.24.395.416.104.176.178.379.229.612.048.233.073.477.073.735 0 .305-.031.584-.092.844z"/></g><g id="icon_x5F_bg"><path class="st3" d="M2 3v10h13V3H2zm12 9H3V4h11v8z"/><path class="st3" d="M8.629 7.361a1.084 1.084 0 0 0-.423-.295 1.646 1.646 0 0 0-.609-.101c-.119 0-.241.012-.368.033a3.196 3.196 0 0 0-.672.195 1.287 1.287 0 0 0-.213.114v.768c.158-.132.341-.235.544-.313.204-.078.413-.117.627-.117.213 0 .377.063.494.186.116.125.174.325.174.6l-1.03.154a1.645 1.645 0 0 0-.526.152 1.09 1.09 0 0 0-.562.66A1.562 1.562 0 0 0 6 9.858c0 .17.025.322.074.463a.945.945 0 0 0 .568.595c.14.057.298.084.479.084.229 0 .431-.053.604-.16a1.3 1.3 0 0 0 .439-.463h.014v.529h.785V8.469c0-.238-.027-.451-.083-.637a1.289 1.289 0 0 0-.251-.471zm-.446 2.021c0 .131-.021.252-.059.365a.897.897 0 0 1-.165.295.76.76 0 0 1-.593.271.682.682 0 0 1-.242-.041.528.528 0 0 1-.186-.113.48.48 0 0 1-.116-.172.583.583 0 0 1-.04-.218c0-.086.01-.164.027-.232s.051-.127.098-.18a.541.541 0 0 1 .195-.133c.083-.033.189-.061.32-.078l.761-.109v.345zM12.697 7.516a1.194 1.194 0 0 0-.394-.416 1.028 1.028 0 0 0-.572-.153 1.016 1.016 0 0 0-.615.198 1.187 1.187 0 0 0-.225.223 2.12 2.12 0 0 0-.182.289h-.012V5H10v5.888h.697v-.484h.012c.045.082.096.158.152.228.057.07.119.133.191.186a.81.81 0 0 0 .238.121.93.93 0 0 0 .291.043c.231 0 .434-.053.609-.16a1.33 1.33 0 0 0 .443-.443c.121-.188.211-.412.273-.672A3.58 3.58 0 0 0 13 8.862a3.54 3.54 0 0 0-.074-.734 2.044 2.044 0 0 0-.229-.612zm-.476 1.954c-.039.18-.094.328-.168.445a.747.747 0 0 1-.264.266.675.675 0 0 1-.651.016.736.736 0 0 1-.236-.207.983.983 0 0 1-.154-.307 1.257 1.257 0 0 1-.057-.381v-.507c0-.17.02-.326.061-.465.039-.139.096-.258.168-.36a.762.762 0 0 1 .256-.232.678.678 0 0 1 .332-.082.642.642 0 0 1 .57.32c.066.106.117.231.15.377.035.146.053.311.053.494 0 .236-.019.443-.06.623z"/></g></svg>
